X:216
T:score291
L:1/8
Q:1/4=120
M:4/4
I:linebreak $
K:C
 (E.G) | G.A z2 z2 (A.c) | (c.B) z2 z2 (G.A) | (A.B) z2 z2 (B.f) | (f.e) z2 z2 (e.e') | %5
 (e'.d') z2 z2 (d'.b) | (b.a) z2 z2 (a.f) | (f.e) (e.c) (c.A) (A.B) | c2 z2 z4 |] %9
